X: 480
T: Maude Miller
C:anon.
O:Ireland
B:Francis O'Neill: "The Dance Music of Ireland" (1907) no. 480
R:Reel
Z:Transcribed by Frank Nordberg - http://www.musicaviva.com
F:http://www.musicaviva.com/abc/tunes/ireland/oneill-1001/oneill-1001-048
0.abc
M:C|
L:1/8
K:D
dcAG FADF|E2(cE) dEcE|dcAG FADF|Dddc dfed|dcAG FADF|E2(cE) dEcE|dcAG FADF
|Dddc d2d2H||
||fedf efge|afge afge|fedf efge|afge (fd)de|fedf efge|afge f2(fg)|afge fd
ec|Addc dfed"_D.C."|]
W:
W:
W:  From Musica Viva - http://www.musicaviva.com
W:  the Internet center for free sheet music downloads.


